packages/foundations/assets/icons/functional/images/maps/station_14_filled.svg

<svg width="14" height="14" viewBox="0 0 14 14" fill="none" xmlns="http://www.w3.org/2000/svg">
<g clip-path="url(#clip0_2213_5319)">
<path fill-rule="evenodd" clip-rule="evenodd" d="M7.00002 1.40002C10.0928 1.40002 12.6 3.90723 12.6 7.00002C12.6 10.0928 10.0928 12.6 7.00002 12.6C3.90723 12.6 1.40002 10.0928 1.40002 7.00002C1.40002 3.90723 3.90723 1.40002 7.00002 1.40002ZM8.75947 4.20107C8.39586 4.20107 8.10107 4.49581 8.10101 4.85942L8.10073 6.43477H5.89853L5.89881 4.85942C5.89887 4.52186 5.60417 4.20107 5.24057 4.20107C4.87698 4.20107 4.58222 4.49583 4.58222 4.85942V9.14062C4.58222 9.50422 4.87698 9.79897 5.24057 9.79897C5.60411 9.79897 5.89881 9.50427 5.89881 9.14074L5.89853 7.42737H8.10073L8.10101 9.14062C8.10107 9.50424 8.39586 9.79897 8.75947 9.79897C9.12307 9.79897 9.41782 9.50422 9.41782 9.14062V4.85942C9.41782 4.49583 9.12307 4.20107 8.75947 4.20107Z" fill="#1A1C1F"/>
</g>
<defs>
<clipPath id="clip0_2213_5319">
<rect width="14" height="14" fill="white"/>
</clipPath>
</defs>
</svg>

<svg xmlns="http://www.w3.org/2000/svg" width="14" height="14" fill="none"><g clip-path="url(#a)"><path fill="#1A1C1F" fill-rule="evenodd" d="M7 1.4a5.6 5.6 0 1 1 0 11.2A5.6 5.6 0 0 1 7 1.4m1.76 2.801a.66.66 0 0 0-.659.658v1.576H5.899V4.859a.676.676 0 0 0-.658-.658.66.66 0 0 0-.659.658v4.282a.658.658 0 0 0 1.317 0V7.427H8.1v1.714a.658.658 0 0 0 1.317 0V4.859a.66.66 0 0 0-.659-.658" clip-rule="evenodd"/></g><defs><clipPath id="a"><path fill="#fff" d="M0 0h14v14H0z"/></clipPath></defs></svg>
